X:1
T:Sulawesi, 87.87 D
T:Sulawesi, 87.87 D
T:William T. Dale, 1912
T:Public Domain Courtesy of the Cyber Hymnal™
C:William T. Dale, 1912
Z:Public Domain
Z:Courtesy of the Cyber Hymnal™
%%score ( 1 2 ) 3
L:1/8
Q:1/4=100
M:6/8
K:Eb
V:1 treble 
V:2 treble 
V:3 bass 
V:1
 [EG]2 [DF] E2 [DF] | [EG]2 [EF] [EG] !fermata![EB]2 | [Ec]2 [Ec] [EB]2 [Ec] | [EB]2 [EG] [DF]3 | %4
 [EG]2 [DF] E2 [DF] | [EG]2 [EF] [EG] !fermata![EB]2 | [Ec]2 [Ec] [EB]2 [EG] | [DF]2 [DF] E3 | %8
 [EB]2 [EB] [EB]2 [EB] | [Ec]2 [Ec] [EB] !fermata![EG]2 | [EB]2 [EB] [EB]2 [Ec] | %11
 [EB]2 [EG] [DF]3 | [EG]2 [DF] E2 [DF] | [EG]2 [EF] [EG] !fermata![EB]2 | [Ec]2 [Ec] [EB]2 [EG] | %15
 [DF]2 [DF] E3 |] %16
V:2
 x3 E2 x | x6 | x6 | x6 | x3 E2 x | x6 | x6 | x3 E3 | x6 | x6 | x6 | x6 | x3 E2 x | x6 | x6 | %15
 x3 E3 |] %16
V:3
 [E,B,]2 [B,,A,] [C,G,]2 [B,,B,] | [E,B,]2 [E,A,] [E,B,] !fermata![E,G,]2 | %2
 [E,A,]2 [E,A,] [E,G,]2 [E,A,] | [E,G,]2 [E,B,] [B,,B,]3 | [E,B,]2 [B,,A,] [C,G,]2 [B,,B,] | %5
 [E,B,]2 [E,A,] [E,B,] !fermata![E,G,]2 | [A,,A,]2 [A,,A,] [E,G,]2 [E,B,] | %7
 [B,,A,]2 [B,,A,] [E,G,]3 | [E,G,]2 [E,G,] [E,G,]2 [E,G,] | %9
 [A,,A,]2 [A,,A,] [E,G,] !fermata![E,B,]2 | [E,G,]2 [E,G,] [E,G,]2 [E,A,] | %11
 [E,G,]2 [E,B,] [B,,B,]3 | [E,B,]2 [B,,A,] [C,G,]2 [B,,B,] | %13
 [E,B,]2 [E,A,] [E,B,] !fermata![E,G,]2 | [A,,A,]2 [A,,A,] [E,G,]2 [E,B,] | %15
 [B,,A,]2 [B,,A,] [E,G,]3 |] %16

